X:1023
T:Apley House
R:March
C:Trad. Playford 11a 1702
O:England
Z:Paul Hardy's Session Tunebook 2022 (see www.paulhardy.net). Creative Commons cc by-nc-sa licenced.
L:1/8
Q:1/2=90
M:2/2
K:G
"G"B2G2 Bcd2|"Am"e2c2 "D7"A2c2|"G"B2G2 g2G2|"G"B4 d4:|
K:D
|:"D"f2a2 bagf|"A"e2g2 g2fe|"D"f2a2 "G"bagf|"A7"e4 "D"d4:|
K:G
|:"C"e2c2 cdec|"G"d2B2 BcdB|"Em"g2G2 "D7"G2A2|1 "G" B4 d4:|2 "G" G8|]

